X: 20281
T: WASHWOMAN'S WALTZ
C:
%R: waltz
B: Elias Howe "The Musician's Companion" 1843 p.28 #1
S: http://imslp.org/wiki/The_Musician's_Companion_(Howe,_Elias)
Z: 2015 John Chambers <jc:trillian.mit.edu>
N: The last 3 notes of strain 1 actually have two slurs connecting them.
N: The last bar is missing a 16th note, fixed by adding a dot to the B.
M: 3/8
L: 1/16
K: D
% - - - - - - - - - - - - - - - - - - - - - - - - -
FG |\
A2(A2F2) | .d2(d2A2) | .f2(f2d2) | c4(cd) |\
.e2(e2f2) | g4e2 | c2(a2(c2) | d4) :|
|: (de) |\
f2(fe)f2 | (a2g2f2) | (g2f2e2) | (c2e2A2) |\
(f2fef2) | (a2g2f2) | (c2[a2A2]c2) | d4 "^Fine"yH:|
F2 |\
.B2(Bc)d2 | .c2(c2B2) | A2A2B2 | B4A2 |\
(B2Bcd^d) | (e2efgf) | dcfF^G^A | B3=AF"^D.C."G |]
% - - - - - - - - - - - - - - - - - - - - - - - - -

%%sep 1 1 500

